X:1
T:Title
%%score { ( 1 2 5 ) | ( 3 4 ) }
L:1/8
Q:1/4=82
M:4/4
K:C
V:1 treble nm="Grand Piano"
V:2 treble 
V:5 treble 
V:3 bass 
V:4 bass 
V:1
 E-[E-A] [E-B]>[E-A] [E-G][E-A] [E-B]>[EA] | E->[E-A] [E-B]>[Ec] [Cc]2 B>A | GA B>A GA B>A | %3
w: Florence~W.~Williams * * * * * * *|||
 G>[Af] [Af]>[Af] [Af]2 [Ge]2 | E-[E-A] [E-B]>[E-A] [E-G][E-A] [E-B]>[EA] | %5
w: ||
 E->[E-A] [E-B]>[Ec] A3- A/A/ | A[Af] [Af]>A Ge e>e |[M:15/16] ed/-d/ed[Ec]-<[Ec]-[Ec] z/ | %8
w: |||
[M:1/16] G/ |[M:4/4] z2 [Ee]2 z2 [Ed]2[K:bass] | [Ec]2 [Ec]2 [Fc]2[K:bass][K:treble] [FB]2 | %11
w: |||
 z2 [Af]2 z2 [Ge]2 | z z/ d/ z z/ d/ d2 .G>G | z2 [Ee]2 z2 [Ed]2[K:bass] | [Ec]2 z2 [FA]4 | %15
w: ||||
 A^G A>A =G^F G>G | GccB c-[Fc-] [Ec]2 |] %17
w: ||
V:2
 .[G,G]2 z2 z4 | [G,G]2 z2 F4 | x8 | x8 | .[G,G]2 z2 z4 | [G,G]2 z2 z4 | x8 |[M:15/16] x15/2 | %8
[M:1/16] x/ |[M:4/4] [G,EG][Ee] z z/ G/ [G,EG][Ed] z[K:bass] G,, | %10
 z z/ B/ z z/ d/ z[K:bass] [G,,G,][K:treble] z z/ A/ | [FA][Af] z z/ A/ [G,EG][Ge] z C | %12
 [^Fe]2 [Fe]2 z4 | [G,EG][Ee] z z/ G/ [G,EG][Ed] z[K:bass] G,, | z z/ B/ [Ec]>[GB] z C .C>A | x8 | %16
 z4 .[CE]2 z2 |] %17
V:3
 z A, B,>A, G,A, B,>A, | z z/ A,/ B,>C z2 B,>A, | %2
 [G,B,F][G,CF] [G,DF]>[G,CF] [G,B,F][G,CF] [G,DF]>[G,CF] | %3
 [G,B,F]>[K:bass][G,B,] [G,B,]>[G,B,] [C,C]2 [C,C]2 | z A, B,>A, G,A, B,>A, | %5
 z z/ A,/ B,>[K:treble]C [F,A,CF]3- [F,A,CF]/[F,CF]/ | %6
 [F,CF][K:bass][F,C] [F,C]>[K:treble][F,CF] [G,CE][G,CG] [G,CG]>[G,CG] | %7
[M:15/16] [G,B,F][G,B,F]/-[G,B,F]/[G,B,F][G,B,F][K:bass][C,G,C]-<[C,G,C]-[C,G,C] z/ |[M:1/16] G,/ | %9
[M:4/4] C,[G,,G,] .[C,G,]>E C,[G,,G,] .[C,G,]2 | .[C,G,]>E .[C,G,]>E .[D,G,]2 .[D,G,]>F | %11
 [B,,G,][G,,G,] .[B,,G,]>F C,[G,,G,] .[C,G,]2 | %12
 .[D,C]>^F .[D,C]>[K:treble]F [G,B,=F]2 .[G,B,F]>[K:bass]G, | %13
 C,[G,,G,] .[C,G,]>E C,[G,,G,] .[C,G,]2 | .[C,G,]>E [C,G,]>[C,C] [F,C]F, .F,>[K:treble][F,CF] | %15
 [F,CF][F,CF] [F,CF]>[F,CF] [G,CE][G,CE] [G,CE]>[G,CE] | %16
 [G,CE][G,CE][G,DF][G,DF][K:bass] z A, G,2 |] %17
V:4
 C,8 | C,4 D,4 | x8 | x3/2[K:bass] x13/2 | C,8 | C,4[K:treble] z4 | x[K:bass] x5/2[K:treble] x9/2 | %7
[M:15/16] x4[K:bass] x7/2 |[M:1/16] x/ |[M:4/4] z2 z G,, z4 | z G,, z G,, z2 z G,, | z2 z G,, z4 | %12
 z D, z D,[K:treble] z4[K:bass] | z2 z G,, z4 | z G,, z2 z4[K:treble] | x8 | z4[K:bass] C,4 |] %17
V:5
 x8 | x8 | x8 | x8 | x8 | x8 | x8 |[M:15/16] x15/2 |[M:1/16] x/ |[M:4/4] z2 z G, z4[K:bass] | %10
 z G, z G, z2[K:bass][K:treble] z G, | z2 z G, z4 | z C z C z4 | z2 z G, z4[K:bass] | z G, z2 z4 | %15
 x8 | x8 |] %17

